X: 11086
T: Duck, The
R: jig
M: 6/8
K: Dmajor
|:A2c cef|e2c cef|e2c cef|e2c eff|
A2c cef|e2c cef|e2c fec|B2A Bcc:|
|:A2a f2e|fga f2e|fea f2e|fea fea|
A2a f2e|fga f2e|fea fec|B2A Bcc:|

